packages/components/bolt-icons/src/svgs/product/services/academy.svg

<?xml version="1.0" encoding="UTF-8"?>
<svg width="32px" height="32px" viewBox="0 0 32 32" version="1.1" xmlns="http://www.w3.org/2000/svg" xmlns:xlink="http://www.w3.org/1999/xlink">
    <!-- Generator: Sketch 49.3 (51167) - http://www.bohemiancoding.com/sketch -->
    <title>brand icons/community/brand-academy</title>
    <desc>Created with Sketch.</desc>
    <defs>
        <path d="M15.9999129,31.9998 C15.8850201,31.9998 15.7701272,31.9808 15.6624152,31.9408 C15.5249541,31.8908 1.9994,26.7818 1.9994,11.7158 L1.9994,0.9418 C1.9994,0.4218 2.4322998,-0.0002 2.96573083,-0.0002 L29.034095,-0.0002 C29.5665002,-0.0002 29.9994,0.4218 29.9994,0.9418 L29.9994,11.7158 C29.9994,26.7818 16.4748717,31.8908 16.3374106,31.9408 C16.2286728,31.9808 16.1137799,31.9998 15.9999129,31.9998 Z M3.93103583,1.8828 L3.93103583,11.7158 C3.93103583,24.2038 14.0241664,29.1848 16.0050421,30.0398 C18.0474674,29.1808 28.0677642,24.3198 28.0677642,11.7158 L28.0677642,1.8828 L3.93103583,1.8828 Z M14.3746922,18.4629 C14.118235,18.4629 13.8730618,18.3629 13.6914901,18.1879 L9.95952456,14.5499 C9.58304536,14.1829 9.58304536,13.5859 9.95952456,13.2189 C10.3380554,12.8519 10.9473978,12.8519 11.3259287,13.2189 L14.3746922,16.1909 L20.6732817,10.0469 C21.0497609,9.6809 21.6611549,9.6809 22.0396858,10.0469 C22.416165,10.4149 22.416165,11.0109 22.0396858,11.3789 L15.0568684,18.1879 C14.8763225,18.3629 14.6311494,18.4629 14.3746922,18.4629 Z" id="path-1"></path>
    </defs>
    <g id="brand-icons/community/brand-academy" stroke="none" stroke-width="1" fill="none" fill-rule="evenodd">
        <mask id="mask-2" fill="white">
            <use xlink:href="#path-1"></use>
        </mask>
        <g id="Mask"></g>
        <g id="z_atom/Icon-color/brand-black" fill="#D8D8D8" mask="url(#mask-2)">
            <rect id="Rectangle-15" fill="#2D2E33" x="0" y="0" width="32" height="32"></rect>
        </g>
    </g>
</svg>

<svg id="fc04be8a-6dc9-492e-9241-c33eb3ea0be7" data-name="Layer 1" xmlns="http://www.w3.org/2000/svg" viewBox="0 0 28 32"><title>academy</title><path d="M16,32a.37.37,0,0,1-.3-.1C15.5,31.9,2,26.8,2,11.7V.9A.92.92,0,0,1,3,0H29a1,1,0,0,1,1,.9V11.7c0,15.1-13.5,20.2-13.7,20.2A.37.37,0,0,1,16,32ZM3.9,1.9v9.8C3.9,24.2,14,29.2,16,30c2-.9,12.1-5.7,12.1-18.3V1.9ZM14.4,18.5a.91.91,0,0,1-.7-.3L10,14.5a.85.85,0,0,1,0-1.3,1,1,0,0,1,1.4,0l3,3,6.3-6.1a1,1,0,0,1,1.4,0,.85.85,0,0,1,0,1.3l-7,6.8A1.08,1.08,0,0,1,14.4,18.5Z" transform="translate(-2)" fill="#1f2555" fill-rule="evenodd"/></svg>
